usr/share/icons/biglinux-icons-material/22/actions/view-time-schedule-baselined-remove.svg

<svg version="1.1" viewBox="0 0 22 22" xmlns="http://www.w3.org/2000/svg">
 <defs>
  <style id="current-color-scheme" type="text/css">.ColorScheme-Text {
        color:#dedede;
      }
      .ColorScheme-NegativeText {
        color:#da4453;
      }</style>
 </defs>
 <path class="ColorScheme-Text" d="m6 9v3h1v-1h3v1h1v-3h-1v1h-3v-1z" fill="currentColor"/>
 <path class="ColorScheme-NegativeText" d="m16.5 13c-1.933 0-3.5 1.567-3.5 3.5s1.567 3.5 3.5 3.5 3.5-1.567 3.5-3.5-1.567-3.5-3.5-3.5zm-1.666 1 1.666 1.666 1.666-1.666 0.83398 0.83398-1.666 1.666 1.666 1.666-0.83398 0.83398-1.666-1.666-1.666 1.666-0.83398-0.83398 1.666-1.666-1.666-1.666z" fill="currentColor"/>
 <path class="ColorScheme-Text" fill="currentColor" d="m5 3c-1.662 0-3 1.338-3 3v10c0 1.662 1.338 3 3 3h7v-1h-7c-1.108 0-2-0.892-2-2v-8c0-1.108 0.892-2 2-2h11c1.108 0 2 0.892 2 2v4h1v-6c0-1.662-1.338-3-3-3h-11z"/>
</svg>

<svg xmlns="http://www.w3.org/2000/svg" viewBox="0 0 22 22"><defs><style id="current-color-scheme" type="text/css">.ColorScheme-Text{color:#dedede}</style></defs><path fill="currentColor" d="M6 9v3h1v-1h3v1h1V9h-1v1H7V9z" class="ColorScheme-Text"/><path fill="currentColor" d="M16.5 13a3.5 3.5 0 1 0 0 7 3.5 3.5 0 0 0 0-7zm-1.666 1 1.666 1.666L18.166 14l.834.834-1.666 1.666L19 18.166l-.834.834-1.666-1.666L14.834 19 14 18.166l1.666-1.666L14 14.834z" style="color:#da4453"/><path fill="currentColor" d="M5 3C3.338 3 2 4.338 2 6v10c0 1.662 1.338 3 3 3h7v-1H5c-1.108 0-2-.892-2-2V8c0-1.108.892-2 2-2h11c1.108 0 2 .892 2 2v4h1V6c0-1.662-1.338-3-3-3H5z" class="ColorScheme-Text"/></svg>
